public/logo_icon.svg

<svg width="54" height="54" viewBox="0 0 54 54" fill="none" xmlns="http://www.w3.org/2000/svg">
<rect width="54" height="54" rx="16" fill="#4C535D"/>
<path fill-rule="evenodd" clip-rule="evenodd" d="M12.7702 12.7702C6.41027 19.1301 6.41027 29.4408 12.7702 35.8006L16.6086 31.9622C12.3701 27.7238 12.3701 20.8471 16.6086 16.6086C20.847 12.3702 27.7237 12.3702 31.9622 16.6086L35.8004 12.7704C42.16 19.1303 42.1599 29.4408 35.8001 35.8006C29.4402 42.1605 19.1296 42.1605 12.7697 35.8006L8.93131 39.639C17.4082 48.1203 31.1572 48.1203 39.6385 39.639C48.1199 31.1622 48.1199 17.4131 39.6385 8.93181L35.8003 12.77C29.4404 6.41037 19.13 6.41045 12.7702 12.7702ZM28.1247 28.124C30.2461 26.0025 30.2461 22.5686 28.1247 20.4472L31.9631 16.6088C36.2015 20.8472 36.2015 27.7239 31.9631 31.9624C27.7246 36.2008 20.8479 36.2008 16.6095 31.9624L20.4479 28.124C22.5693 30.2454 26.0032 30.2454 28.1247 28.124ZM20.4472 28.1238C18.3257 26.0023 18.3257 22.5685 20.4472 20.447C22.5686 18.3255 26.0025 18.3255 28.124 20.447L24.2856 24.2854L20.4472 28.1238Z" fill="url(#paint0_linear_999_11566)"/>
<defs>
<linearGradient id="paint0_linear_999_11566" x1="8.93082" y1="11.3849" x2="51.5156" y2="5.56101" gradientUnits="userSpaceOnUse">
<stop stop-color="#00F2C6"/>
<stop offset="1" stop-color="#A5FFFD"/>
</linearGradient>
</defs>
</svg>

<svg xmlns="http://www.w3.org/2000/svg" width="54" height="54" fill="none"><rect width="54" height="54" fill="#4C535D" rx="16"/><path fill="url(#a)" fill-rule="evenodd" d="M12.77 12.77c-6.36 6.36-6.36 16.67 0 23.03l3.839-3.838c-4.239-4.238-4.239-11.115 0-15.353 4.238-4.239 11.115-4.239 15.353 0L35.8 12.77c6.36 6.36 6.36 16.67 0 23.03s-16.67 6.36-23.03 0L8.93 39.64c8.477 8.481 22.226 8.481 30.708 0 8.48-8.477 8.48-22.226 0-30.707L35.8 12.77c-6.36-6.36-16.67-6.36-23.03 0m15.355 15.354a5.426 5.426 0 0 0 0-7.677l3.838-3.838c4.239 4.238 4.239 11.115 0 15.353-4.238 4.239-11.115 4.239-15.353 0l3.838-3.838a5.426 5.426 0 0 0 7.677 0m-7.678 0a5.425 5.425 0 0 1 0-7.677 5.425 5.425 0 0 1 7.677 0l-3.838 3.838z" clip-rule="evenodd"/><defs><linearGradient id="a" x1="8.931" x2="51.516" y1="11.385" y2="5.561" gradientUnits="userSpaceOnUse"><stop stop-color="#00F2C6"/><stop offset="1" stop-color="#A5FFFD"/></linearGradient></defs></svg>
